!!!ONB: MCCC : ICS0006_00 : Extracted Monophonic Melody
!!!COM: Saint-Saëns, Camille
!!!OTL: Allegro Appassionato
!!!SCT: O.70
!!!ODT: 1884///
**kern
*staff1
=1
*clefG2
*k[f#c#g#d#]
*E:
*M6/8
2.f#
=2
2.g#
=3
2.B#[
=4
4.B#]
16D#
16F#
16G#
16B#
16d#
16f#
=5
16g#
16b#
16dd#
16ff#
16gg#
16bb#
16ddd#
16fff#
16ggg#
16bbb#
16dddd#
16ffff#
=6
*M8/8
4gggg#
4r
2r
=7
*M6/8
8ff#
8gg#
8b#
4.r
=8
8ff#
8gg#
8b#
4.r
=9
16ff#
16gg#
4b#
16dd#
16ee
4g#
=10
16cc#
16dd#
4f#
16f#
16g#
4B#
=11
16ff#
16gg#
4b#
16dd#
16ee
4g#
=12
16cc#
16dd#
4f#
16f#
16g#
4B#
=13
16ff#
16gg#
4b#
16dd#
16ee
4g#
=14
16bb
16ccc#
4dd#
16aa
16bb
4ee
=15
16ddd#
16eee
4gg
16ddd
16ddd#
4gg#
=16
16bb#
16ccc#
4ee
16aa#
16bb#
4dd#
=17
16dd#
16ee
4g
16dd
16dd#
4g#
=18
4.r
16G
16G#
16B#
16d#
16b#
16a#
=19
16f##
16g#
16b#
16dd#
16bb#
16aa#
16ff##
16gg#
16bb#
16ddd#
16bbb#
16aaa#
=20
16ggg#
16aaa
16ggg#
16aaa
16ggg#
16aaa
16ggg#
16aaa
16ggg#
16aaa
16ggg#
16aaa
=21
16ggg
16ggg#
16fff##
16ggg#
16fff##
16ggg#
16fff##
16ggg#
16fff##
16ggg#
16fff##
16ggg#
=22
16fff#
16ggg#
4bb#
16ddd#
16eee
4gg#
=23
16ccc#
16ddd#
4ff#
16ff#
16gg#
4b#
=24
16gg
16gg#
4b#
16dd#
16ee
4g#
=25
16cc#
16dd#
4f#
16f#
16g#
4B#
=26
16ff#
16gg#
4b#
16dd#
16ee
4g#
=27
16bb
16ccc#
4dd#
16aa#
16bb
4ee
=28
16eee
16eee#
4gg#
16ddd#
16eee
4aa
=29
16ddd
16ddd#
4ff#
16ccc#
16ddd
4gg
=30
16bb
16bb#
4dd#
16aa#
16bb
4dd
=31
16dd
16dd#
4f#
16cc#
16dd
4g
=32
16dd
16dd#
4f#
16cc#
16dd
4g
=33
2.r
=34
16F#
16G
16B
16d
16b
16a
16f#
16g
16b
16dd
16bb
16aa
=35
16ff#
16gg
16ff#
16gg
16ff#
16gg
16ff#
16gg
16ff#
16gg
16ff#
16gg
=36
16ee#
16ff#
16ee#
16ff#
16ee#
16ff#
16ee#
16ff#
16ee#
16ff#
16ee#
16ff#
=37
16ee
16ee#
16dd#
16ee
16bb
16ddd
16bb#
16aa
16ee
16dd#
16cc##
16b#
=38
16a##
16b#
16a#
16b
16ff#
16aa
16gg
16ee
16b
16a#
16a
16g#
=39
16g
16a
16f#
16g
16dd
16ee#
16ff#
16dd
16a
16g#
16g
16f#
=40
16cc#
16a
16f#
16c#
8g#
4a
16a
16a#
=41
16b
16b#
16a#
16b
16ff#
16aa
16gg
16ee
16b
16a#
16a
16g#
=42
16g
16a
16f#
16g
16dd
16ee#
16ee
16b#
16g
16f#
16e#
16e
=43
16d#
16e#
16c##
16d#
16a#
16b#
16cc#
16a#
16e
16d#
16d
16c#
=44
16g#
16e
16c#
16G#
8d#
4e
16cc#
16c#
=45
8r
16cc#
8.d
16cc#
8.d#
16cc#
16e
=46
8r
8cc#
8dd#
8ee
8gg#
16ccc#
16cc#
=47
8r
16ccc#
8.dd
16ccc#
8.dd#
16ccc#
16ee
=48
8r
8ccc#
8ddd#
8eee
8cc#
8dd#
=49
8ee
8c#
8d#
8e
8B#
8c#
=50
8d#
8c#
8d#
8e
8B#
8c#
=51
8d#
8c#
8d#
8e
8d#
8e
=52
2.f#
=53
2.g#
=54
2.B#
=55
4.bb#[
4.bb#]
=56
2.r
=57
2.r
=58
2.B
=59
4.bb[
4.bb]
=60
2.r
=61
2.r
=62
8bb
8bb#
8dd#[
4.dd#]
=63
8aa
8bb
8ee[
4.ee]
=64
8ff#
8gg
8a#[
4.a#]
=65
8a#
8b
8d#[
4.d#]
=66
*M2/4
8bb
8bb#
4bb#
=67
*M3/4
8dd#
8aa
8bb
8ee
4r
=68
*M2/4
8ff#
8gg
4gg
=69
8a#
8a#
8b
8d#
=70
8r
8a
8b
8d
=71
8r
8a#
8b
8d#
=72
*M3/4
8d#
8a
8b
8d
4r
=73
*M6/8
4.d
4.e
=74
4.f#
4.g
=75
4.a
4.b
=76
4.b#
4.ee
=77
4.g
4.f#
=78
4.g
4.b
=79
4.d
4.c#
=80
4.e
4.d
=81
*M2/4
4d
4e
=82
4f#
4g
=83
4a
4b
=84
4b#
4ee
=85
4gg
4ff#
=86
4gg
4b
=87
4dd
4cc#
=88
*M3/4
4cc#
4b
4r
=89
*M2/4
8d
8e
8f#
8g
=90
8a
8b
8b#
8ee
=91
8g
8f#
8g
8b
=92
8d
8c#
16e
16e
8d
=93
2d[
=94
4d]
4e#
=95
8e#
8d##
8e#
8a
=96
8b#
8b
12dd
12b#
12ee
=97
8c#
8ee
4g[
=98
4g]
4g
=99
8g
8f#
8g
8b
=100
8dd
8cc#
12ee
12dd
12bb
=101
4bb
4b[
=102
8b]
8b
8b#
8cc##
=103
4dd#
8ee
8a
=104
4cc#
8dd
8g
=105
2b#[
=106
4b#]
12b#
12b
12a
=107
8a#
8b
4bb[
=108
8bb]
8b[
12b]
12b#
12cc##
=109
12dd#
12ff#
12ee[
16ee]
16g#
8a
=110
12cc#
12ee
12dd[
16dd]
16f#
8g
=111
12b
12dd
12b#
32dd
32b#
32dd
32b#
32dd
32b#
32dd
32b#
=112
32dd
32b#
32dd
32b#
32dd
32b#
32dd
32b#
32dd
32b#
32a##
32b#
32dd
32b#
32b
32a
=113
*M3/4
32a#
32b
32dd
32gg
32bb
32ddd
32ggg
32bbb
32aaa
32ggg
32fff#
32eee
32ddd
32bb#
32bb
32aa
32gg
32ff#
32ee
32dd
32b#
32b
32ee
32dd
=114
32b
32b#
32ee
32aa
32bb#
32eee
32aaa
32bbb#
32bbb
32aaa
32ggg
32eee#
32eee
32ddd
32bb#
32bb
32aa
32gg
32ee#
32ee
32dd
32b#
32ee#
32ee
=115
32cc#
32dd
32ee#
32bb
32ddd
32eee#
32bbb
32dddd
32bbb#
32bbb
32aaa
32ggg
32eee#
32eee
32ddd
32ggg
32eee#
32eee
32ddd
32bb#
32bb
32aa
32gg
32ee#
=116
*M2/4
32ee#
32ee
32ddd
32bb#
32bb
32aa
32gg
32ff#
32ee
32dd
32bb#
32bb
32aa
32gg
32ee#
32ee
=117
32dd
32b#
32bb
32aa
32gg
32ff#
32ee
32dd
32b#
32b
32aa
32gg
32ff#
32ee
32dd
32b#
=118
32b
32a
32g#
32a
32d#
32e
32e#
32f#
32g
32g#
32a
32a#
32b
32b#
32cc#
32dd
=119
32dd#
32ee
32ee#
32ff#
32gg
32gg#
32aa
32aa#
32bb
32bb#
32ccc#
32ddd
32ddd#
32eee
32eee#
32fff#
=120
16ggg
16ddd
16ddd#
16aa
16aa#
16ff#
16gg
16dd
=121
16dd#
16a
16a#
16f#
16g
16d
16d#
16a#[
=122
16a#]
16d
8d#
16b
16d#
16e
16b[
=123
16b]
16e
8e#
16b
16f#
16b
16a
=124
*M6/8
4.g
16ddd
16ddd#
4ff#
=125
16ccc#
16ddd
4gg
16dd
16dd#
4f#
=126
16cc#
16dd
4g
4.r
=127
16F#
16G
16B
16d
16b
16a
16f#
16g
16b
16dd
16bb
16aa
=128
16ff#
16gg
16aa
16bb
16bb#
16ddd
16ddd
16ddd#
4ff#
=129
16ccc#
16ddd
4gg
16dd
16dd#
4f#
=130
16cc#
16dd
4e#
4.r
=131
16F#
16G
16B
16d
16b
16a
16f#
16g
16b
16dd
16bb
16aa
=132
16ff#
16gg
16aa
16bb
16bb#
16ddd
16ccc#
16ddd
4ee#
=133
16bb
16bb#
4ee#
16cc#
16dd
4e#
=134
16b
16b#
4e#
16ddd
16ddd#
4ff#
=135
16bb#
16ccc#
4ff#
16dd
16dd#
4f#
=136
16b#
16cc#
4f#
16bb#
16ccc#
4ee
=137
16ddd#
16eee
4gg
16fff#
16ggg
4aa#
=138
16aaa
16aaa#
16ccc#
16a#
16cc#
16ee
16gg
16aa#
16ccc#
16eee
16ggg
16aaa#
=139
16eeee
16dddd#
16dddd
16cccc#
16bbb#
16bbb
16aaa#
16aaa
16ggg#
16fff##
16aaa#
16eee
=140
16ggg
16fff#
16eee#
16eee
16ddd#
16ddd
16ccc#
16bb#
16bb
16aa#
16ccc#
16gg
=141
16aa#
16aa
16gg#
16gg
16ff#
16ee#
8ee
8dd#
8dd
=142
8cc#
8ee
8gg
8aa#
8ccc#
8eee
=143
*M12/8
8ggg
8aaa#
8cccc#
4.gggg
2.r
=144
*M2/4
2gg#[
=145
8gg#]
8ccc#
8ff#
8bb
=146
2aa[
=147
8aa]
8gg#
8ff#
8ee
=148
4.gg#
8ff#
=149
4.ee
8ff#
=150
*M3/4
4gg#
4aa
4ff#
=151
*M2/4
32gg#
32aa
32gg#
32aa
32gg#
32aa
32gg#
32aa
32gg#
32aa
32gg#
32aa
32gg#
32aa
16ff#
=152
8gg#
8ccc#
8ff#
8bb
=153
32aa
32bb
32aa
32bb
32aa
32bb
32aa
32bb
32aa
32bb
16gg#
16aa
16bb
=154
8aa
8gg#
8ff#
8ee
=155
4.gg#
8ff#
=156
4.ee
8ff#
=157
*M3/4
4gg#
4aa
4ff#
=158
4bb
4ccc#
4aa
=159
4.ddd#
8ddd#
8eee
8fff#
=160
4aa
4bb
4ccc#
=161
4.ccc#
8dd#
8ee
8ff#
=162
4a
8.b
32r
32cc#
4cc#
=163
4dd
4aa
4bb
=164
4ccc#
4ddd
4eee
=165
4fff#
4ggg#
4aaa[
=166
8aaa]
8aaa#
8bbb
8cccc#
8dddd
8dddd#
=167
*M6/8
4.eeee
16ee
16ee#
16dd#
16ee
16bb
16ddd
=168
16bb#
16aa
16ee
16dd#
16cc##
16b#
16a##
16b#
16a#
16b
16ff#
16aa
=169
16gg#
16ee
16b
16g#
16e
16B
16g#
16e[
4e]
=170
4.r
16e
16g#
16b
16ee
16gg#
16bb
=171
4.eee
16eee
16eee#
16ddd#
16eee
16bbb
16dddd
=172
16bbb#
16aaa
16eee
16ddd#
16ddd
16ccc#
16bb#
16ddd
16bb
16bb#
16ggg
16aaa#
=173
16aaa
16eee#
16bb#
16aa
16ee#
16b#
16aa
16ee#
16b#
16a
16e#
16B#
=174
4r
16a
16b#
16ee#
16aa
16bb#
16eee#
16aaa
16bbb#
=175
4eeee#
8e#[
8e#]
8f#
8A
=176
8e#
8f#
8A#
4cc#
8b#
=177
4b#
8a#
8f#
8g
8A#
=178
8f#
8g
8B
4dd
8cc#
=179
4cc#
8b
4.bb[
=180
4.bb]
4b
8cc#
=181
4cc#
8dd
4.eee#[
=182
4.eee#]
4dd
8ee
=183
4ee
8ee#
4.bbb[
=184
16bbb]
16B
16d
16e#
16b
16dd
16ee#
16b
16dd
16ee#
16bb
16ddd
=185
4.eee#
16B#
16c#
16d
16d#
16e
16e#
=186
16f#
16g
16g#
16a
16a#
16b
16b#
16cc#
16dd
16dd#
16ee
16ee#
=187
16ff#
16gg#
4b#
16dd#
16ee
4g#
=188
16cc#
16dd#
4f#
16f#
16g#
4B#
=189
16ff#
16gg#
4b#
16dd#
16ee
4g#
=190
16cc#
16dd#
4f#
16f#
16g#
4B#
=191
16ff#
16gg#
4b#
16dd#
16ee
4g#
=192
16bb
16ccc#
4dd#
16aa
16bb
4ee
=193
16ddd#
16eee
4gg
16ddd
16ddd#
4gg#
=194
16bb#
16ccc#
4ee
16aa#
16bb#
4dd#
=195
16dd#
16ee
4g
16dd
16dd#
4g#
=196
4.r
16G
16G#
16B#
16d#
16b#
16a#
=197
16f##
16g#
16b#
16dd#
16bb#
16aa#
16ff##
16gg#
16bb#
16ddd#
16bbb#
16aaa#
=198
16ggg#
16aaa
16ggg#
16aaa
16ggg#
16aaa
16ggg#
16aaa
16ggg#
16aaa
16ggg#
16aaa
=199
16ggg
16ggg#
16fff##
16ggg#
16fff##
16ggg#
16fff##
16ggg#
16fff##
16ggg#
16fff##
16ggg#
=200
16fff#
16ggg#
4bb#
16ddd#
16eee
4gg#
=201
16ccc#
16ddd#
4ff#
16ff#
16gg#
4b#
=202
16gg
16gg#
4b#
16dd#
16ee
4g#
=203
16cc#
16dd#
4f#
16f#
16g#
4B#
=204
16ff#
16gg#
4b#
16dd#
16ee
4g#
=205
16bb
16ccc#
4dd#
16aa#
16bb
4ee
=206
2.r
=207
16d#
16e
16d#
16e
16d#
16e
16dd#
16ee
16dd#
16ee
16dd#
16ee
=208
16ee
16ee#
16dd#
16ee
16bb
16ddd
16bb#
16aa
16ee
16dd#
16cc##
16b#
=209
16a##
16b#
16a#
16b
16ff#
16aa
16gg
16ee
16b
16a#
16a
16g#
=210
16g
16a
16f#
16g
16dd
16ee#
16ff#
16dd
16a
16g#
16g
16f#
=211
16cc#
16a
16f#
16c#
8g#
4a
16aa
16aa#
=212
16bb
16bb#
16aa#
16bb
16fff#
16aaa
16ggg
16eee
16bb
16aa#
16aa
16gg#
=213
16gg
16aa
16ff#
16gg
16ddd
16eee#
16eee
16bb#
16gg
16ff#
16ee#
16ee
=214
16dd#
16ee#
16cc##
16dd#
16aa#
16bb#
16ccc#
16aa#
16ee
16dd#
16dd
16cc#
=215
16gg#
16g#
16e
16c#
8d#
4e
16cc#
16c#
=216
8r
16cc#
8.d
16cc#
8.d#
16cc#
16e
=217
8r
8cc#
8dd#
8ee
8gg#
16ccc#
16cc#
=218
8r
16ccc#
8.dd
16ccc#
8.dd#
16ccc#
16ee
=219
8r
8ccc#
8ddd#
8eee
8ggg#
16cccc#
16ccc#
=220
8r
16cccc#
8.ddd
16cccc#
8.ddd#
16cccc#
16eee
=221
8r
16cccc#
8.eee#
16cccc#
8.fff#
16cccc#
16ggg
=222
16eeee
16cccc#
16ggg
16eee
16ccc#
16gg
4.r
=223
16eee
16ccc#
16gg
16ee
16cc#
16g
16ee
16cc#
16g
16e
16c#
16G
=224
4.A#
8gg
4gg
=225
8gg#
4gg#
8b#
4b#
=226
16r
16eee
16ggg#
16cccc#
16eeee
16eee
16ddd#
16ccc#
16eee
16ggg#
16cccc#
16ccc#
=227
16bb
16aa
16ccc#
16fff#
16aaa
16aa
16gg#
16ff#
16bb#
16ddd#
16fff#
16ff#
=228
16ff#
16ee
16gg#
16ccc#
16eee
16ee
16dd#
16cc#
16ee
16gg#
16ccc#
16cc#
=229
16b
16a
16cc#
16ff#
16aa
16a
16g#
16f#
16b#
16dd#
16ff#
16f#
=230
16f#
16e
16g#
16cc#
16ee
16e
16d#
16c#
16e
16g#
16cc#
16c#
=231
16B
16A
16c#
16f#
16a
16A
16G#
16F#
16B#
16d#
16f#
16F#
=232
16r
16E
16G#
16c#
16e
16d#
16r
16e
16g#
16cc#
16ee
16dd#
=233
16cc#
16ee
16gg#
16ccc#
16eee
16ddd#
16ccc#
16eee
16ggg#
16cccc#
8eeee
=234
16r
16E
16A
16c#
16e
16d#
16r
16e
16a
16cc#
16ee
16dd#
=235
16cc#
16ee
16aa
16ccc#
16eee
16ddd#
16ccc#
16eee
16aaa
16cccc#
8eeee
=236
16r
16A
16d
16f#
16a
16g#
16r
16a
16dd
16ff#
16aa
16gg#
=237
16ff#
16aa
16ddd
16fff#
16aaa
16ggg#
16fff#
16aaa
16dddd
16ffff#
8aaaa
=238
16r
16ff#
16aa
16ddd#
16fff#
16ff#
16r
16ee
16gg#
16ccc#
16eee
16ee
=239
16r
16dd#
16ff#
16bb#
16ddd#
16dd#
16r
16cc#
16ee
16aa
16ccc#
16cc#
=240
16r
16b
16dd
16gg#
16bb
16b
16r
16a
16cc#
16ff#
16aa
16a
=241
16r
16g#
16cc#
16ee
16gg#
16g#
16r
16g
16cc#
16ee
16gg
16g
=242
16r
16g#
16b
16ee#
16gg#
16g#
16r
16f#
16a
16cc#
16ff#
16f#
=243
16r
16e
16g
16cc#
16ee
16e
16r
16d#
16f#
16g#
16dd#
16d#
=244
16r
16E#
16G#
16c#
16e#
16g#
16cc#
16ee#
16gg#
16ccc#
24eee#
24ggg#
24cccc#
=245
4.eeee#
16ee#
16ee#[
4ee#]
=246
16r
16E#
16G#
16c#
16e#
16g#
16cc#
16ee#
16gg#
16ccc#
32eee#
32ggg#
32cccc#
32eeee#
=247
4.gggg#
16gg#
16gg#[
4gg#]
=248
16r
8cc#
8b#
16a#
16r
8a
8g#
16ee#
=249
16r
8cc#
8b#
16a#
16r
8a
8g#
16ee#
=250
4.cc#
4.r
=251
2.cc#
=252
*M5/4
4eee#[
2.eee#]
4r
==
*-
